X:1
T:Why, O my soul, why weepest thou?
T:Thomas Clark
T:Text: Benjamin Beddome
T:This edition by Edmund Gooch released into the public domain, December 2017.
T:Why, O my soul, why weepest thou?
T:LAMENTATION. C.M. Hy: 274 Dr. Rippon.
C:Thomas Clark
Z:Text: Benjamin Beddome
%%score [ 1 2 3 4 ]
L:1/8
M:3/4
K:C
V:1 treble nm="Air" snm="S."
V:2 treble nm="[Alto]" snm="A."
V:3 treble-8 transpose=-12 nm="Tenor" snm="T."
V:4 bass nm="[Bass]" snm="B."
V:1
"^Expressive" A2 A2 B2 | c4 c2 | (d3 c) (BA) | (A2 ^G2) z2 | A2 f2 e2 | (d2 c2) B2 | c4 d2 | %7
w: Lord, let me|weep for|nought _ but _|sin, _|And af- ter|none _ but|thee, And|
w: Why, O my|soul, why|wee- * pest _|thou? _|Tell me from|whence _ a-|rise Those|
w: Is sin the|cause of|thy _ com- *|plaint, _|Or the chas-|ti- * sing|rod? Dost|
 e4 e2 | d4 d2 | c4 c2 | B4 c2 | f4 e2 | (d2 c2) B2 | A4 |] %14
w: then, I|would, O|that I|might! A|con- stant|wee- * per|be!|
w: bri- ny|tears that|of- ten|flow, Those|groans that|pierce _ the|skies?|
w: thou an|e- vil|heart la-|ment, And|mourn an|ab- * sent|God?|
V:2
 E2 E2 E2 | E4 A2 | A4 F2 | E4 z2 | E2 D2 G2 | (A2 G2) G2 | G4 G2 | G4 G2 | G4 G2 | E4 E2 | E4 E2 | %11
w: Lord, let me|weep for|nought but|sin,|And af- ter|none _ but|thee, And|then, I|would, O|that I|might! A|
w: Why, O my|soul, why|wee- pest|thou?|Tell me from|whence _ a-|rise Those|bri- ny|tears that|of- ten|flow, Those|
w: Is sin the|cause of|thy com-|plaint,|Or the chas-|ti- * sing|rod? Dost|thou an|e- vil|heart la-|ment, And|
 D4 C2 | (F2 E2) E2 | E4 |] %14
w: con- stant|wee- * per|be!|
w: groans that|pierce _ the|skies?|
w: mourn an|ab- * sent|God?|
V:3
 c2 A2 ^G2 | A4 e2 | (f3 e) (dc) | (c2 B2) z2 | c2 d2 e2 | (f2 e2) d2 | e4 B2 | c4 c2 | B4 B2 | %9
w: Lord, let me|weep for|nought _ but _|sin, _|And af- ter|none _ but|thee, And|then, I|would, O|
w: Why, O my|soul, why|wee- * pest _|thou? _|Tell me from|whence _ a-|rise Those|bri- ny|tears that|
w: Is sin the|cause of|thy _ com- *|plaint, _|Or the chas-|ti- * sing|rod? Dost|thou an|e- vil|
 A4 A2 | ^G4 A2 | B4 c2 | (B2 A2) ^G2 | A4 |] %14
w: that I|might! A|con- stant|wee- * per|be!|
w: of- ten|flow, Those|groans that|pierce _ the|skies?|
w: heart la-|ment, And|mourn an|ab- * sent|God?|
V:4
 A,,2"^6" C,2"^#" E,2 | A,4 A,2 | D,4"^86""^75" D,2 |"^64""^5#" E,4 z2 | A,2"^5" B,2 C2 | %5
w: Lord, let me|weep for|nought but|sin,|And af- ter|
w: Why, O my|soul, why|wee- pest|thou?|Tell me from|
w: Is sin the|cause of|thy com-|plaint,|Or the chas-|
"^6" (F,2"^64" G,2)"^53" G,,2 | C,4 G,2 | %7
w: none _ but|thee, And|
w: whence _ a-|rise Those|
w: ti- * sing|rod? Dost|
"^The order of parts in the source is Tenor - [Alto] - Air - [Bass], with the Alto and Tenor parts printed in the trebleclef an octave above sounding pitch. Only the first verse of the text is given in the source: subsequent verseshave been added editorially here." (C2 C,D,)"^6" (E,F,) | %8
w: then, _ _ I _|
w: bri- * * ny _|
w: thou _ _ an _|
 G,4 G,2 | (A,2 A,,B,,)"^6" (C,D,) |"^#" E,4 A,2 |"^7" ^G,4 A,2 |"^6" (D,2"^64" E,2)"^5#" E,2 | %13
w: would, O|that _ _ I _|might! A|con- stant|wee- * per|
w: tears that|of- * * ten _|flow, Those|groans that|pierce _ the|
w: e- vil|heart _ _ la- *|ment, And|mourn an|ab- * sent|
 A,,4 |] %14
w: be!|
w: skies?|
w: God?|

